X: 033
T: THE FOX
C: Abr: MACKINTOSH, JOHN WATLEN'S 2nd Coll.
R: Reel
B: Glen Collection p.3 #_
Z: 2011 John Chambers <jc:trillian.mit.edu>
M: C|
L: 1/8
V: 1 middle=B clef=treble
V: 2 middle=d clef=bass
%%score {1 | 2}
K: A
%
V: 1
e |\
cA A/A/A eAcA | eagf fedc | dB B/B/B fBdB | fefg bagf |
eA A/A/A aAcA | efga fedc | defg abaf | ecaf e2A ||
f |\
eAcA cecA | aAgA fAeA | fBdB dfdB | bBaB gBfB |
eAcA aAcA | efga fedc | defg abaf | ecaf e2[AC] |]
%
V: 2
z |\
[a2A2][c'2a2e2] [c'2a2e2][c'2a2e2] | c2[c'2a2e2] d2[b2f2d2] |\
B2[b2f2d2] [b2f2d2][b2f2d2] | d2[a2f2] e2[d'2b2] |
[c'2a2e2][c'2a2e2] [c'2a2e2][c'2a2e2] | a2[c'2a2e2] d2[a2f2] |\
B2[b2f2d2] c2d2 | e2[c'2a2] A2[c'ae] ||
z |\
A2[c'2a2e2] [c'2a2e2][c'2a2e2] | A2[c'2a2e2] [c'2a2e2][c'2a2e2] |\
[d2D2][b2f2d2] [b2f2d2][b2f2d2] | [e2E2][d'2g2e2] [d'2g2e2][d'2g2e2] |
[a2A2][c'2a2e2] [c'2a2e2][c'2a2e2] | a2[e'2c'2] d2[a2f2] |\
B2[b2f2d2] c2d2 | e2[c'2a2] [c'2a2][aeA] |]
